X:1
T:No One Loves You So
T:Henry P. Morton
T:No One Loves You So
T:Public Domain
T:Public Domain
T:Public Domain
C:Henry P. Morton
Z:Public Domain
%%score 1 2
L:1/8
M:4/4
K:G
V:1 treble 
V:2 bass 
V:1
 [B,D][B,G] | [DB]2 [DB]>[^C^A] [DB]2 [E=c][DB] | [DB]2 [B,G][CA] [DB]2 [DB][GB] | %3
w: 1.~Are the|bur- dens you car- ry too|hea- vy to bear? Does the|
w: 2.~Do you|think in your sor- row you|suf- fer a- lone? All your|
w: 3.~He a-|lone can re- deem you from|dark- ness and woe; He will|
w: 4.~Cast your|cares on the Sav- ior each|mo- ment, each day, He will|
 [Fd] [Ec]2 [DB] [Fd] [Ec]2 [DB] | [^CA]2 [CE]>[CB] [=CA]2 [B,D][B,G] | [DB]2 [DB]>[^C^A] | %6
w: weight of your sin fill your|heart with des- pair? Go to|Je- sus for|
w: grief and your sad- ness to|Him are made known; He hath|ne- ver for-|
w: wash all your sins till they’re|white as the snow, And His|won- der- ful|
w: guide you and keep you each|step of the way; He will|drive all your|
 [DB]2 [Ec][DB] | [DB]2 [B,G][CA] [DB]2 [DB][GB] | [Fd] [Ec]2 [DB] [DA]2 [DB]2 | [DG]6 || %10
w: aid, He will|an- swer your prayer; There is|no one who loves you|so.|
w: sak- en or|turned from His own; There is|no one who loves you|so.|
w: grace you may|con- stant- ly know; There is|no one who loves you|so.|
w: fears and your|sor- rows a- way; There is|no one who loves you|so.|
"^Refrain" [DBd][DBd] | [DBd]2 [D^A^c]>[=ce] [DBd]2 [DG][D=A] | [GB]4 [DG]4 | %13
w: |||
w: There is|no one who loves you like|Je- sus,|
w: |||
w: |||
 [DAc]2 [D^GB][DAc] [DBd]3 [DAc] | [DGB]6 [B,D][B,D] | [CE]2 [CE][EG] [Ec]2 [CE][CE] | %16
w: |||
w: No one who loves you|so; For the|cross you lay down He will|
w: |||
w: |||
 [B,D]2 [B,D][B,G] [DB]2 [DB][GB] | [Fd] [Ec]2 [DB] [DA]2 [DB]2 | [DG]6 |] %19
w: |||
w: give you a crown; There is|no one who loves you|so.|
w: |||
w: |||
V:2
 [G,,G,][G,,D,] | [G,,G,]2 [G,,D,]>[G,,D,] [G,,G,]2 [G,,D,][G,,D,] | %2
 [G,,G,]2 [G,,D,][G,,D,] [G,,G,]2 [G,,G,][G,D] | [D,D] [D,D]2 [D,D] [D,D] [D,D]2 [D,G,] | %4
 [A,,G,]2 [A,,G,]>[A,,G,] [D,F,]2 [G,,G,][G,,D,] | [G,,G,]2 [G,,D,]>[G,,D,] | %6
 [G,,G,]2 [G,,D,][G,,D,] | [G,,G,]2 [G,,D,][G,,D,] [G,,G,]2 [G,,G,][G,D] | %8
 [D,D] [D,D]2 [D,D] [D,C]2 [D,D]2 | [G,B,]6 || [G,,G,D][G,,G,D] | %11
 [G,,G,D]2 [G,,G,D]>[G,,G,D] [G,,G,D]2 [G,B,][G,C] | [G,D]4 [G,B,]4 | %13
 [D,D]2 [D,D][D,D] [D,D]3 [D,D] | [G,D]6 [G,,G,][G,,G,] | %15
 [C,G,]2 [C,G,][C,G,] [C,G,]2 [C,G,][C,G,] | [G,,G,]2 [G,,G,][G,,G,] [G,,G,]2 [G,,G,][G,D] | %17
 [D,D] [D,D]2 [D,D] [D,C]2 [D,D]2 | [G,B,]6 |] %19

